X: 1
T: le Joual du rapide blanc
T: le Rapide du Joual Blanc
T: the White Horse
C: trad. Qu\'ebec
R: reel
S: Fiddle Hell Online 2020-11-06
S: https://www.natunelist.net/le-rapide-du-joual-blanc/
Z: 2020 John Chambers <jc:trillian.mit.edu>
e: C|
L: 1/8
K: Em
"^A"[|] ^D2 |:\
"Em"E2B,E G2EG | B2GB e2ef | "C"gfeg "D"fedf |\
[1,3 edB^c dBAF :| [2,4 "D"eagf "Em"e2 :|
"^B"\
|: ef |\
"Em"geBe geBe | "C"gece gece | "D"afdB ABdf |\
[1,3 afdB AA :|[2,4 "D"afdf "Em"e2 :|
